X:1
T: Winter Dreams
N:
C:
S:
A:
O:
R:
M:3/4
K:G
I:speed 180
%W:
% voice 1 (1 lines, 25 notes)
K:G
M:3/4
L:1/16
B4 d4 |e6 d2 c2 B2 |c6 B2 A2 G2 |B4 A8 |A4 G4 A4 |B6 A2 G2 F2 |A6 G2 F2 E2 |F12 |A4 ||
